X: 11
T: Minuet
C: Michael Dabney
R: minuet
B: Michael Dabney "Twelve Minuets and Twelve Dances" p.6 #1
S: http://imslp.org/wiki/12_Minuets_and_12_Dances_(Dabney,_Michael)
Z: 2015 John Chambers <jc:trillian.mit.edu>
M: 3/4
L: 1/8
K: F
% - - - - - - - - - - - - - - - - - - - - - - - - -
% Voice 1 produces mostly 4- or 8-bar staffs.
V: 1
|:\
a4(ga) | bgecf2 | dfedcB | A2G2F2 |\
fcAcfa | gecG Eg | (3(agf) e2 Td2 | c6 :|
|:\
{d}Tc2a2c2 | c2BA B2 | B2g2B2 | {c}TB2AGA2 |\
[A3F3]AGB | Acdefc | (3dBG F2 TE2 | F6 :|
% - - - - - - - - - - - - - - - - - - - - - - - - -
% Voice 2 preserves the staff breaks in the book.
V: 2 clef=bass middle=d
|:\
f2 a2 f2 | c'2 "4;2"b2 "6"a2 | b2 c'2 c2 | f6 |\
z2 f2 F2 | z2 e2 c2 | f2 "6;4"g2 G2 | c6 :|
|:\
a3 ABc | "7;#"d4 "3"G2 | g3 GAB | "7"c4 "3"F2 |\
f4 e2 | f2 "6"g2 "6"a2 | "6"b2 "6;4"c'2 "3"c2 | F6 :|
% - - - - - - - - - - - - - - - - - - - - - - - - -

%%sep 1 1 500
%%sep 1 1 500
